32x32/apps/deepin-cloud-scan-config-helper.svg

<svg height="32" width="32" xmlns="http://www.w3.org/2000/svg"><path d="m6.375 3c-.762 0-1.375.624-1.375 1.4v25.2c0 .776.613 1.4 1.375 1.4h19.25c.762 0 1.375-.624 1.375-1.4v-25.2c0-.776-.613-1.4-1.375-1.4z" opacity=".2"/><path d="m6.375 2c-.762 0-1.375.624-1.375 1.4v25.2c0 .776.613 1.4 1.375 1.4h19.25c.762 0 1.375-.624 1.375-1.4v-25.2c0-.776-.613-1.4-1.375-1.4z" fill="#2995ff"/><path d="m14.2 17a4.2 4.2 0 0 0 -4.2 4.2 4.2 4.2 0 0 0 .059.696 3.15 3.15 0 0 0 -2.059 2.954 3.15 3.15 0 0 0 2.75 3.12v.03h10.15v-.002a3.15 3.15 0 0 0 3.11-3.148 3.15 3.15 0 0 0 -2.02-2.936 4.2 4.2 0 0 0 -4.19-3.914 4.2 4.2 0 0 0 -.796.078 4.2 4.2 0 0 0 -2.805-1.078z" opacity=".2"/><g fill="#f4f4f7"><circle cx="11.15" cy="23.85" r="3.15"/><circle cx="14.2" cy="20.2" r="4.2"/><circle cx="17.8" cy="21.2" r="4.2"/><circle cx="20.859" cy="23.85" r="3.15"/><path d="m10.75 22.42h10.15v4.582h-10.15z"/></g><rect height="3" opacity=".2" rx=".7" ry=".75" width="28" x="2" y="11"/><rect fill="#f34235" height="3" rx=".7" ry=".75" width="28" x="2" y="10"/><path d="m8 9h12v1h-12zm0-3h16v1h-16z" fill="#f4f4f7" opacity=".5"/><path d="m6.375 2c-.762 0-1.375.625-1.375 1.4v1c0-.775.613-1.4 1.375-1.4h19.25c.762 0 1.375.625 1.375 1.4v-1c0-.775-.613-1.4-1.375-1.4z" fill="#f4f4f7" opacity=".2"/></svg>

<svg xmlns="http://www.w3.org/2000/svg" width="32" height="32" version="1"><path style="opacity:.2" d="M6.375 3C5.613 3 5 3.624 5 4.4v25.2c0 .776.613 1.4 1.375 1.4h19.25c.762 0 1.375-.624 1.375-1.4V4.4c0-.776-.613-1.4-1.375-1.4z"/><path style="fill:#2995ff" d="M6.375 2C5.613 2 5 2.624 5 3.4v25.2c0 .776.613 1.4 1.375 1.4h19.25c.762 0 1.375-.624 1.375-1.4V3.4c0-.776-.613-1.4-1.375-1.4z"/><path style="opacity:.2" d="M14.2 17a4.2 4.2 0 0 0-4.2 4.2 4.2 4.2 0 0 0 .059.696A3.15 3.15 0 0 0 8 24.85a3.15 3.15 0 0 0 2.75 3.12V28H20.9v-.002a3.15 3.15 0 0 0 3.11-3.148 3.15 3.15 0 0 0-2.02-2.936A4.2 4.2 0 0 0 17.8 18a4.2 4.2 0 0 0-.796.078A4.2 4.2 0 0 0 14.199 17z"/><circle style="fill:#f4f4f7" cx="11.15" cy="23.85" r="3.15"/><circle style="fill:#f4f4f7" cx="14.2" cy="20.2" r="4.2"/><circle style="fill:#f4f4f7" cx="17.8" cy="21.2" r="4.2"/><circle style="fill:#f4f4f7" cx="20.859" cy="23.85" r="3.15"/><path style="fill:#f4f4f7" d="M10.75 22.42H20.9v4.582H10.75z"/><rect style="opacity:.2" width="28" height="3" x="2" y="11" rx=".7" ry=".75"/><rect style="fill:#f34235" width="28" height="3" x="2" y="10" rx=".7" ry=".75"/><path style="opacity:.5;fill:#f4f4f7" d="M8 9h12v1H8zM8 6h16v1H8z"/><path style="fill:#f4f4f7;opacity:.2" d="M6.375 2C5.613 2 5 2.625 5 3.4v1C5 3.625 5.613 3 6.375 3h19.25C26.387 3 27 3.625 27 4.4v-1c0-.775-.613-1.4-1.375-1.4H6.375z"/></svg>
